public/img/clients/trov.svg

<svg width="200" height="100" viewBox="0 0 200 100" fill="none" xmlns="http://www.w3.org/2000/svg">
<path fill-rule="evenodd" clip-rule="evenodd" d="M77.687 45.423C77.882 45.031 78.073 44.636 78.275 44.247C79.278 42.324 80.601 40.68 82.453 39.503C83.697 38.713 85.058 38.239 86.513 38.037C87.233 37.937 88.7 37.947 88.7 37.947V45.527C88.7 45.527 87.87 45.503 87.453 45.53C84.925 45.69 82.668 46.505 80.859 48.34C79.527 49.692 78.724 51.337 78.239 53.15C77.859 54.566 77.685 56.01 77.683 57.472C77.678 60.085 77.68 69.898 77.68 69.898H70.52V44.686H54.657C54.613 44.764 54.635 44.848 54.634 44.926V59.994C54.634 60.659 54.721 61.304 54.974 61.928C55.304 62.743 55.891 63.276 56.714 63.572C57.48 63.848 58.274 63.842 59.07 63.809C60.192 63.762 61.256 63.469 62.286 63.037C62.482 62.954 62.674 62.862 62.896 62.762C62.899 62.854 62.906 62.932 62.906 63.009C62.906 64.023 62.906 67.065 62.908 67.573L62.911 68.353C62.913 68.528 62.838 68.64 62.687 68.723C61.391 69.44 60 69.869 58.543 70.08C57.498 70.232 56.443 70.234 55.39 70.173C53.195 70.047 50.95 69.37 49.46 67.673C49.042 67.199 48.7 66.665 48.428 66.096C48.05 65.302 47.824 64.464 47.666 63.603C47.516 62.776 47.481 61.943 47.481 61.106C47.483 58.49 47.484 30 47.484 30H54.634V38.523H77.679V45.46L77.689 45.423C77.883 45.031 77.685 45.436 77.689 45.423H77.687ZM144.032 38.533H151.519C151.511 38.681 151.435 38.803 151.384 38.93C147.566 48.326 139.218 68.846 138.871 69.713C138.815 69.853 138.751 69.917 138.585 69.916C137.472 69.912 133.008 69.916 132.733 69.916C132.626 69.916 132.496 69.936 132.393 69.892C132.319 69.859 132.28 69.784 132.25 69.712C130.063 64.345 121.65 43.754 119.637 38.824C119.601 38.736 119.567 38.644 119.533 38.554C119.605 38.508 119.673 38.529 119.736 38.529C122.156 38.526 124.576 38.529 126.998 38.523C127.156 38.523 127.231 38.565 127.288 38.72C129.858 45.75 135.591 61.394 135.591 61.394L144.033 38.534L144.032 38.533ZM92.464 31.08H117.711V34.585H92.465L92.464 31.08Z" fill="black"/>
<path fill-rule="evenodd" clip-rule="evenodd" d="M77.687 45.4229L77.679 45.4609C77.677 45.4509 77.677 45.4369 77.677 45.4239H77.687V45.4229ZM121.81 51.5399C121.52 49.5159 120.853 47.5529 119.808 45.7899C118.744 43.9949 117.308 42.4019 115.644 41.1399C113.844 39.7699 111.757 38.8299 109.564 38.2969C107.137 37.7069 104.608 37.6469 102.154 38.0969C100.144 38.4669 98.194 39.1599 96.444 40.2169C94.694 41.2769 93.186 42.6839 91.954 44.3119C90.682 45.9919 89.709 47.8939 89.168 49.9319C88.628 51.9679 88.528 54.0969 88.783 56.1819C89.028 58.1889 89.596 60.1519 90.553 61.9359C91.49 63.6779 92.773 65.2119 94.281 66.4879C95.921 67.8739 97.809 68.9449 99.857 69.5959C101.963 70.2659 104.217 70.5139 106.42 70.3779C108.673 70.2399 110.92 69.6609 112.953 68.6749C114.839 67.7609 116.508 66.4719 117.893 64.9049C119.253 63.3669 120.356 61.6049 121.063 59.6789C121.757 57.7889 122.055 55.7729 122.003 53.7639C121.983 53.0189 121.916 52.2759 121.81 51.5389C121.278 47.8419 122.56 56.7439 121.81 51.5389V51.5399ZM113.845 58.8399C113.088 60.4669 111.935 61.8979 110.389 62.8369C108.682 63.8739 106.623 64.3029 104.641 64.1569C102.598 64.0049 100.629 63.1949 99.101 61.8269C98.241 61.0529 97.529 60.1149 97.008 59.0829C96.47 58.0199 96.125 56.8509 95.938 55.6779C95.763 54.5799 95.746 53.4579 95.914 52.3579C96.084 51.2409 96.444 50.1599 96.954 49.1549C97.424 48.2349 98.006 47.3669 98.734 46.6319C99.384 45.9789 100.14 45.4369 100.968 45.0339C101.824 44.6179 102.748 44.3519 103.688 44.2109C104.752 44.0529 105.842 44.0409 106.906 44.2159C108.994 44.5629 110.918 45.6719 112.321 47.2479C113.701 48.7979 114.476 50.7759 114.747 52.8179C115.019 54.8729 114.717 56.9579 113.842 58.8399C112.457 61.8179 114.915 56.5299 113.842 58.8399H113.845Z" fill="black"/>
</svg>

<svg xmlns="http://www.w3.org/2000/svg" focusable="false" role="img" viewBox="0 0 200 100" fill="currentColor">
  <path fill-rule="evenodd" d="M77.687 45.423c.195-.392.386-.787.588-1.176 1.003-1.923 2.326-3.567 4.178-4.744 1.244-.79 2.605-1.264 4.06-1.466.72-.1 2.187-.09 2.187-.09v7.58s-.83-.024-1.247.003c-2.528.16-4.785.975-6.594 2.81-1.332 1.352-2.135 2.997-2.62 4.81a16.694 16.694 0 00-.556 4.322c-.005 2.613-.003 12.426-.003 12.426h-7.16V44.686H54.657c-.044.078-.022.162-.023.24v15.068c0 .665.087 1.31.34 1.934.33.815.917 1.348 1.74 1.644.766.276 1.56.27 2.356.237 1.122-.047 2.186-.34 3.216-.772.196-.083.388-.175.61-.275.003.092.01.17.01.247 0 1.014 0 4.056.002 4.564l.003.78c.002.175-.073.287-.224.37-1.296.717-2.687 1.146-4.144 1.357-1.045.152-2.1.154-3.153.093-2.195-.126-4.44-.803-5.93-2.5a6.83 6.83 0 01-1.032-1.577c-.378-.794-.604-1.632-.762-2.493-.15-.827-.185-1.66-.185-2.497.002-2.616.003-31.106.003-31.106h7.15v8.523h23.045v6.937l.01-.037c.194-.392-.004.013 0 0h-.002zm66.345-6.89h7.487c-.008.148-.084.27-.135.397-3.818 9.396-12.166 29.916-12.513 30.783-.056.14-.12.204-.286.203-1.113-.004-5.577 0-5.852 0-.107 0-.237.02-.34-.024-.074-.033-.113-.108-.143-.18-2.187-5.367-10.6-25.958-12.613-30.888-.036-.088-.07-.18-.104-.27.072-.046.14-.025.203-.025 2.42-.003 4.84 0 7.262-.006.158 0 .233.042.29.197 2.57 7.03 8.303 22.674 8.303 22.674l8.442-22.86-.001-.001zM92.464 31.08h25.247v3.505H92.465l-.001-3.505z" clip-rule="evenodd"/>
  <path fill-rule="evenodd" d="M77.687 45.423l-.008.038c-.002-.01-.002-.024-.002-.037h.01v-.001zm44.123 6.117a15.618 15.618 0 00-2.002-5.75 16.333 16.333 0 00-4.164-4.65c-1.8-1.37-3.887-2.31-6.08-2.843a17.8 17.8 0 00-7.41-.2c-2.01.37-3.96 1.063-5.71 2.12-1.75 1.06-3.258 2.467-4.49 4.095-1.272 1.68-2.245 3.582-2.786 5.62-.54 2.036-.64 4.165-.385 6.25.245 2.007.813 3.97 1.77 5.754.937 1.742 2.22 3.276 3.728 4.552a16.316 16.316 0 005.576 3.108c2.106.67 4.36.918 6.563.782 2.253-.138 4.5-.717 6.533-1.703a15.794 15.794 0 004.94-3.77c1.36-1.538 2.463-3.3 3.17-5.226.694-1.89.992-3.906.94-5.915a19.266 19.266 0 00-.193-2.225c-.532-3.697.75 5.205 0 0v.001zm-7.965 7.3c-.757 1.627-1.91 3.058-3.456 3.997-1.707 1.037-3.766 1.466-5.748 1.32-2.043-.152-4.012-.962-5.54-2.33a9.399 9.399 0 01-2.093-2.744c-.538-1.063-.883-2.232-1.07-3.405a10.776 10.776 0 01-.024-3.32c.17-1.117.53-2.198 1.04-3.203.47-.92 1.052-1.788 1.78-2.523a8.252 8.252 0 012.234-1.598 9.416 9.416 0 012.72-.823 10.428 10.428 0 013.218.005c2.088.347 4.012 1.456 5.415 3.032 1.38 1.55 2.155 3.528 2.426 5.57.272 2.055-.03 4.14-.905 6.022-1.385 2.978 1.073-2.31 0 0h.003z" clip-rule="evenodd"/>
</svg>
